X:369
M:C|
L:1/8
K:A
E|A2Ac B2Bc|A2Ac B2Bc|A2 ag fedc|B2e2c2 AE|A2Ac B2Bc|A2Ac B2Bc|
e2af ecAc|e^def ecAc|e2ag fedc|d2bd c2ac|B2Bc d2cB|A2ag fedc|B2e2c2A||

